X: 1
T: the Fiddling Twin (for Lance)
C: Hanneke Cassel 2010
R: jig
S: handwritten page in Concord Slow Scottish Session collection
Z: 2015 John Chambers <jc:trillian.mit.edu>
M: 6/8
L: 1/8
K: D
|:\
"D"F3 FA,F | "A/D"EA,G "D"FDF | "F#m"A3 AFA | "G"B2A "D"G2F |\
"A/c#"E2F "A"GEG | "D"AGF "G/B"GAF | "A"E2F G2A | "A"EDC "G(D)"D3 :|
|:\
"D"d3 dAd | "G"g3 gfe | "Em"efg "Em/D"efg | "A/c#"cde Aec |\
"D"ded dAf | "G"Bcd "D/F#"AGF | "Em"E2F G2B | "A/c#"EDC "D"D3 :|
